_site/images/homepage/data-security.svg

<svg fill="none" height="30" viewBox="0 0 30 30" width="30" xmlns="http://www.w3.org/2000/svg"><rect fill="#ff647c" height="30" rx="7" width="30"/><path clip-rule="evenodd" d="m7.8 13.4c.44183 0 .8-.3582.8-.8v-3.99999h4c.4418 0 .8-.35819.8-.80002 0-.44181-.3582-.79999-.8-.79999h-4.8c-.44183 0-.8.35818-.8.79999v4.80001c0 .4418.35817.8.8.8zm14.4001-6.4h-4.8c-.4419 0-.8.35818-.8.79999 0 .44183.3581.80002.8.80002h4v3.99999c0 .4418.3581.8.8.8.4418 0 .8-.3582.8-.8v-4.80001c0-.44181-.3582-.79999-.8-.79999zm0 9.5996c-.4419 0-.8.3582-.8.8v4h-4c-.4419 0-.8.3582-.8.8s.3581.8.8.8h4.8c.4418 0 .8-.3582.8-.8v-4.8c0-.4418-.3582-.8-.8-.8zm-9.6001-3.9994c0-1.3255 1.0745-2.4 2.4-2.4s2.4 1.0745 2.4 2.4v.8c.8837 0 1.6.7163 1.6 1.6v3.2c0 .8837-.7163 1.6-1.6 1.6h-4.8c-.8836 0-1.6-.7163-1.6-1.6v-3.2c0-.8837.7164-1.6 1.6-1.6zm1.6-.0004c0-.4418.3582-.8.8-.8.4419 0 .8.3582.8.8v.8h-1.6zm-1.6 5.6002h4.8v-3.2h-4.8zm-4 3.1996h4c.4418 0 .8.3582.8.8s-.3582.8-.8.8h-4.8c-.44183 0-.8-.3582-.8-.8v-4.8c0-.4418.35817-.8.8-.8s.8.3582.8.8z" fill="#fff" fill-rule="evenodd"/></svg>

<svg width="30" height="30" viewBox="0 0 30 30" fill="none" xmlns="http://www.w3.org/2000/svg">
<rect width="30" height="30" rx="7" fill="#FF647C"/>
<path fill-rule="evenodd" clip-rule="evenodd" d="M7.8 13.4C8.24183 13.4 8.6 13.0418 8.6 12.6V8.60001H12.6C13.0418 8.60001 13.4 8.24182 13.4 7.79999C13.4 7.35818 13.0418 7 12.6 7H7.8C7.35817 7 7 7.35818 7 7.79999V12.6C7 13.0418 7.35817 13.4 7.8 13.4ZM22.2001 7H17.4001C16.9582 7 16.6001 7.35818 16.6001 7.79999C16.6001 8.24182 16.9582 8.60001 17.4001 8.60001H21.4001V12.6C21.4001 13.0418 21.7582 13.4 22.2001 13.4C22.6419 13.4 23.0001 13.0418 23.0001 12.6V7.79999C23.0001 7.35818 22.6419 7 22.2001 7ZM22.2001 16.5996C21.7582 16.5996 21.4001 16.9578 21.4001 17.3996V21.3996H17.4001C16.9582 21.3996 16.6001 21.7578 16.6001 22.1996C16.6001 22.6414 16.9582 22.9996 17.4001 22.9996H22.2001C22.6419 22.9996 23.0001 22.6414 23.0001 22.1996V17.3996C23.0001 16.9578 22.6419 16.5996 22.2001 16.5996ZM12.6 12.6002C12.6 11.2747 13.6745 10.2002 15 10.2002C16.3255 10.2002 17.4 11.2747 17.4 12.6002V13.4002C18.2837 13.4002 19 14.1165 19 15.0002V18.2002C19 19.0839 18.2837 19.8002 17.4 19.8002H12.6C11.7164 19.8002 11 19.0839 11 18.2002V15.0002C11 14.1165 11.7164 13.4002 12.6 13.4002V12.6002ZM14.2 12.5998C14.2 12.158 14.5582 11.7998 15 11.7998C15.4419 11.7998 15.8 12.158 15.8 12.5998V13.3998H14.2V12.5998ZM12.6 18.2H17.4V15H12.6V18.2ZM8.6 21.3996H12.6C13.0418 21.3996 13.4 21.7578 13.4 22.1996C13.4 22.6414 13.0418 22.9996 12.6 22.9996H7.8C7.35817 22.9996 7 22.6414 7 22.1996V17.3996C7 16.9578 7.35817 16.5996 7.8 16.5996C8.24183 16.5996 8.6 16.9578 8.6 17.3996V21.3996Z" fill="white"/>
</svg>
